packages/icons/src/components/Icon/assets/small-solid/weather-night.svg

<svg width="16" height="16" viewBox="0 0 16 16" fill="none" xmlns="http://www.w3.org/2000/svg">
<path d="M11.4951 2.52798C11.67 2.53292 11.7419 2.75485 11.603 2.86135L10.5522 3.6671C10.491 3.714 10.4651 3.79376 10.4871 3.86763L10.8645 5.13667C10.9145 5.30474 10.7253 5.44222 10.5809 5.34281L9.49013 4.59213C9.42665 4.54845 9.34281 4.54845 9.27933 4.59213L8.18857 5.34281C8.04413 5.44222 7.85499 5.30474 7.90497 5.13667L8.28237 3.86763C8.30433 3.79376 8.27845 3.714 8.2173 3.6671L7.16649 2.86135C7.0276 2.75485 7.09942 2.53292 7.27438 2.52798L8.60031 2.49057C8.67716 2.48841 8.74474 2.43916 8.77035 2.36667L9.20944 1.12397C9.26785 0.958675 9.50162 0.958675 9.56002 1.12397L9.99911 2.36667C10.0247 2.43916 10.0923 2.48841 10.1692 2.49057L11.4951 2.52798ZM13.6583 6.81204C13.8339 6.81631 13.9061 7.03927 13.7664 7.14576L13.2733 7.52166C13.2118 7.56851 13.1857 7.64852 13.2078 7.7226L13.3863 8.32157C13.4364 8.48966 13.2472 8.62724 13.1027 8.52781L12.5886 8.17401C12.5252 8.13033 12.4413 8.13033 12.3778 8.17401L11.8638 8.52781C11.7193 8.62724 11.5301 8.48966 11.5802 8.32157L11.7587 7.7226C11.7808 7.64852 11.7547 7.56851 11.6932 7.52166L11.2 7.14576C11.0603 7.03927 11.1326 6.81631 11.3082 6.81204L11.9276 6.79701C12.0047 6.79514 12.0726 6.74587 12.0984 6.67317L12.308 6.08079C12.3664 5.9156 12.6 5.9156 12.6585 6.08079L12.8681 6.67317C12.8938 6.74587 12.9618 6.79514 13.0389 6.79701L13.6583 6.81204Z" fill="black"/>
<path fill-rule="evenodd" clip-rule="evenodd" d="M5.8238 3.1047C5.99483 3.2413 6.07015 3.46533 6.01637 3.67751C5.91247 4.08743 5.85712 4.51727 5.85712 4.96083C5.85712 7.83575 8.1877 10.1663 11.0626 10.1663C11.913 10.1663 12.7142 9.96285 13.4218 9.60242C13.6168 9.50307 13.852 9.52699 14.023 9.6636C14.194 9.8002 14.2693 10.0242 14.2156 10.2364C13.5217 12.974 11.0422 15 8.08805 15C4.59708 15 1.76709 12.17 1.76709 8.67904C1.76709 6.21865 3.17293 4.08758 5.22258 3.04352C5.41763 2.94416 5.65276 2.96809 5.8238 3.1047Z" fill="black"/>
</svg>

<svg xmlns="http://www.w3.org/2000/svg" width="16" height="16" fill="none" viewBox="0 0 16 16">
    <path fill="#000" d="M11.495 2.528a.186.186 0 0 1 .108.333l-1.05.806a.19.19 0 0 0-.066.2l.377 1.27a.186.186 0 0 1-.283.206l-1.09-.75a.19.19 0 0 0-.212 0l-1.09.75a.186.186 0 0 1-.284-.206l.377-1.27a.19.19 0 0 0-.065-.2l-1.05-.806a.186.186 0 0 1 .107-.333L8.6 2.491a.19.19 0 0 0 .17-.124l.44-1.243a.186.186 0 0 1 .35 0L10 2.367a.19.19 0 0 0 .17.124zm2.163 4.284a.186.186 0 0 1 .108.334l-.493.376a.19.19 0 0 0-.065.2l.178.6a.186.186 0 0 1-.283.206l-.514-.354a.19.19 0 0 0-.211 0l-.514.354a.186.186 0 0 1-.284-.206l.179-.6a.19.19 0 0 0-.066-.2l-.493-.376a.186.186 0 0 1 .108-.334l.62-.015a.19.19 0 0 0 .17-.124l.21-.592a.186.186 0 0 1 .35 0l.21.592a.19.19 0 0 0 .17.124z"/>
    <path fill="#000" fill-rule="evenodd" d="M5.824 3.105c.17.136.246.36.192.573q-.157.617-.159 1.283a5.205 5.205 0 0 0 7.565 4.641.558.558 0 0 1 .794.634 6.321 6.321 0 1 1-8.993-7.193.56.56 0 0 1 .6.062" clip-rule="evenodd"/>
</svg>
